F[BALLADE
CUT[Die dienende Schwester
    Es spielt ein Spielgraf an dem Rhein,]
CNR[juh, an dem Rhein]
REG[Suedosteuropa, Rumaenien, Banat]
SRC[4, S. 104
    ????]
KEY[Q0075G 16  F 2/4 3/4]
MEL[-5_  4_4_4_4_  3_321__
    5__  2_2-7-5_
    -5_  1_1_2__.32  1_1-51_
    -5_  1_1_2__.32  1_1-51__. //] >>
FCT[Ballade, Adelige als Dienstmagd, Tod; Kinder - Spiel, Tanz]
CMT[Zweite Zeile = Refrain.]
